X: 1
T: Coming Home with the Girls in the Morning
M: C|
L: 1/8
S: Jim McKinney <stringtet:charter.net> [tradtunes 2014-10-11]
K: Ddor
G2 |\
"Dm"A2 d2 d2 de | "C"d2 c2 A2 G2 | "Dm"A2 d2 d2 ed | "C"c6 G2 |\
"Dm"A2 d2 d2 de | "C"d2 c2 A2 AB | "C"c2 B2 "Am"A2 FE |1 "Dm"D6 :|2 "Dm"D6 |]
DE |\
"Dm"F2 A2 "C"E2 A2 | "Dm"DEDC A,2 DE | "Dm"F2 F2 "C"ED C2 | "Dm"D4 D2 DE |\
"Dm"F2 A2 "C"E2 A2 | "Dm"DEDC A,2 AB | "C"c2 B2 "Am"A2 FE | "Dm"D6 ||
DE |\
"Dm"F2 A2 "C"E2 A2 | "Dm"DEDC A,2 DE | "Dm"F2 E2 "C"F2 G2 | "D"^F4 F2 DE |\
"Dm"F2 A2 "C"E2 A2 | "Dm"DEDC A,2 AB | "Bb"c2 B2 "C"A2 FE | "Dm"D6 |]
